!!!COM: Peter Cornelius
!!!CNT: Deutsch
!!!TXO: Deutsch
!!!OTL: Komm, wir wandeln
!!!LYR: Cornelius
!!!OPR: Three Songs
!!!OPS: Op.4
!!!ONM: No. 2
!!!ENC: Ben Fuhrman
!!!YOR: CD Sheet Music, Mid-Romantic German Lieder: The Ultimate Collection.
!!!YOR: CD Sheet Music, LLC 2001
!!!ODT: 1854
!!NB: Only vocal melody encoded.
!!NB: First instance of melodic material only encoded.
!!created: 2/2/10 2:30PM
!!proofed and posted: 2/2/10 2:33PM
**kern	**silbe
*clef G2	*
*k[b-e-a-d-g-]	*
*M3/4	*
*MM[Ma2ssig bewegt]	*
=5	=5
{6ff	{Komm,
12ee	wir
12ee	wan-
12dd-	-deln
12cc	zu-
12cc	-sam-
12b-	-men
12a-	im
=6	=6
4a-	Mond-
4f	-schein!
8r	.
8dd-	So
=7	=7
4dd-	zaub-
4cc	-risch
4b-	gla2nzt
=8	=8
(12a-	je-
12cc)	|
12b-	-des
4a-}	Blatt,}
8r	.
{8an	{viel
=9	=9
*k[b-]	*
12a	-leicht
12a	steht
12a	auf
12a	ei-
12b-	-nem
12cc	ge-
12cc	-schrie-
12g	-ben,
12cc	wie
=10	=10
4.ff	lieb
8ff	mein
8.ff	Herz
16ee-	dich
=11	=11
2dd	hat
8r	.
8dd	wie
=12	=12
(4gg	lieb
4ff)	|
4dd	mein
=13	=13
[2cc	Herz
8cc]	|
8cc	dich
=14	=14
(4ff	hat.
[2cc)	|
=15	=15
2cc]}	|}
4r	.
=16	=16
*k[b-e-a-d-g-]	*
{6ff	{Komm,
12ee-	wir
12ee-	wan-
12dd-	-deln
12cc	zu-
12cc	-sam-
12b-	-men
12a-	im
=17	=17
4a-	Mond-
4f	-schein!
8r	.
8dd-	Der
=18	=18
4dd-	Mond
4cc	strahlt
4bb-	aus
=19	=19
12a-	Wel-
12cc	-len
12b-	be-
4a-}	-wegt,}
8r	.
{8an	{viel-
=20	=20
*k[b-]	*
8a-	-leicht,
8a-	dass
8a-	du
8a-	ah-
8b-	-nest,
8cc	wie
8cc	se-
8g	-lig
8cc	mein
=21	=21
4.ff	Herz
8ff	dein
8.ff	Bild-
16ee-	-nis
=22	=22
2dd	hegt,
8r	.
8dd	mein
=23	=23
(4gg	Herz
4ff)	|
4dd	dein
=24	=24
[2cc	Bild-
8cc]	|
8cc	-nis
=25	=25
(4ff	hegt.
[2cc)	|
=26	=26
2cc]}	|}
4r	.
=27	=27
*k[b-e-a-d-g-]	*
2.r	.
=28	=28
{2dd-	{Komm,
4dd-	wir
=29	=29
4gg-	wan-
4.b-	-deln
8b-	zu-
=30	=30
2ee-	-sam-
8cc	-men
8a-	im
=31	=31
4a-	Mond-
2dd-}	-schein!}
=32	=32
4r	.
4r	.
8r	.
{8b-	{Der
=33	=33
4b-	Mond
4a-	will
4b-	ein
=34	=34
4dd-	ko2-
4cc	-nig-
4dd-	-lich
=35	=35
4.ee-	Kleid
8ee-	aus
12een	gol-
12dd#	-de-
12een	-nen
=36	=36
*k[f#c#g#]	*
4gg#	Strah-
4ff#	-len
4ee	dir
=37	=37
2ee	we-
4cc#	-ben,
=38	=38
4r	.
4cc#	dass
4cc#	du
=39	=39
*k[b-e-a-d-g-]	*
2ff	wan-
8dd-	-delst
8a-	in
=40	=40
2gg-	Herr-
4cc	-lich-
=41	=41
2dd-}	-keit!}
4r	.
=42	=42
2.r	.
=43	=43
4r	.
{4a-	{Komm,
4b-	wir
=44	=44
4dd-	wan-
4cc	-deln
4dd-	zu-
=45	=45
4ff	-sam-
4ee-	-men
4a-	im
=46	=46
2a-	Mond-
[4dd-	-schein.]
=47	=47
2dd-]}	|}
4r	.
==	==
*-	*-
